icons/banking/icon_investments_xxl_white.svg

<?xml version="1.0" encoding="UTF-8"?>
<svg width="48px" height="48px" viewBox="0 0 48 48" version="1.1" xmlns="http://www.w3.org/2000/svg" xmlns:xlink="http://www.w3.org/1999/xlink">
    <!-- Generator: Sketch 48.2 (47327) - http://www.bohemiancoding.com/sketch -->
    <title>icon_investments_xxl_white</title>
    <desc>Created with Sketch.</desc>
    <defs></defs>
    <g id="set" stroke="none" stroke-width="1" fill="none" fill-rule="evenodd">
        <g id="icon_investments_xxl_white">
            <g id="icon_investments__xl__white">
                <rect id="_ph_" opacity="0" x="0" y="0" width="48" height="48"></rect>
                <path d="M4,11.0022853 L4,39.9977147 C4,40.5498729 4.4485341,41 4.99749218,41 L43.0025078,41 C43.5515127,41 44,40.5508019 44,39.9977147 L44,11.0022853 C44,10.4501271 43.5514659,10 43.0025078,10 L4.99749218,10 C4.44848734,10 4,10.4491981 4,11.0022853 Z M3,11.0022853 C3,9.89645368 3.89666034,9 4.99749218,9 L43.0025078,9 C44.1056923,9 45,9.89978493 45,11.0022853 L45,39.9977147 C45,41.1035463 44.1033397,42 43.0025078,42 L4.99749218,42 C3.89430771,42 3,41.1002151 3,39.9977147 L3,11.0022853 Z" id="Rectangle-6-Copy" fill="#FFFFFF" fill-rule="nonzero"></path>
                <polygon id="Rectangle-6" fill="#FFFFFF" opacity="0.300000012" points="4 28 24.0806047 28 44 28 44 30 24.1322613 30 4 30"></polygon>
                <path d="M11,30 L17,30 L17,32.0010434 C17,32.5527519 16.5490248,33 16.009222,33 L11.990778,33 C11.4435864,33 11,32.5573397 11,32.0010434 L11,30 Z" id="Rectangle-9" fill="#FFFFFF" opacity="0.300000012"></path>
                <path d="M31,30 L37,30 L37,32.0010434 C37,32.5527519 36.5490248,33 36.009222,33 L31.990778,33 C31.4435864,33 31,32.5573397 31,32.0010434 L31,30 Z" id="Rectangle-9-Copy" fill="#FFFFFF" opacity="0.300000012"></path>
                <path d="M29.4430208,6.30013438 C29.3883291,6.16340526 29.1457141,6 28.9975267,6 L19.0024733,6 C18.8613406,6 18.6090571,6.16993975 18.5569792,6.30013438 L17.477033,9 L30.522967,9 L29.4430208,6.30013438 Z M17.6285025,5.92874371 C17.8336749,5.41581272 18.455761,5 19.0024733,5 L28.9975267,5 C29.5511774,5 30.1636684,5.40917099 30.3714975,5.92874371 L32,10 L16,10 L17.6285025,5.92874371 Z" id="Rectangle-7" fill="#FFFFFF" fill-rule="nonzero"></path>
            </g>
        </g>
    </g>
</svg>

<svg xmlns="http://www.w3.org/2000/svg" width="48" height="48" viewBox="0 0 48 48"><g fill="#FFF" fill-rule="evenodd"><path fill-rule="nonzero" d="M4 11.002v28.996C4 40.55 4.449 41 4.997 41h38.006c.549 0 .997-.45.997-1.002V11.002c0-.552-.449-1.002-.997-1.002H4.997C4.448 10 4 10.45 4 11.002zm-1 0C3 9.896 3.897 9 4.997 9h38.006C44.106 9 45 9.9 45 11.002v28.996A2.001 2.001 0 0 1 43.003 42H4.997C3.894 42 3 41.1 3 39.998V11.002z"/><path d="M4 28h40v2H4zm7 2h6v2.001a1 1 0 0 1-.99.999h-4.02a.992.992 0 0 1-.99-.999V30zm20 0h6v2.001a1 1 0 0 1-.99.999h-4.02a.992.992 0 0 1-.99-.999V30z" opacity=".3"/><path fill-rule="nonzero" d="M29.443 6.3c-.055-.137-.297-.3-.445-.3h-9.996c-.14 0-.393.17-.445.3L17.477 9h13.046l-1.08-2.7zm-11.814-.37c.205-.513.827-.929 1.373-.929h9.996c.553 0 1.166.41 1.373.929L32 10H16l1.629-4.071z"/></g></svg>
